dist/img/icons/phone.svg

<svg width="50" height="50" viewBox="0 0 50 50" fill="none" xmlns="http://www.w3.org/2000/svg">
<path d="M39.5158 30.9727C38.4921 29.9069 37.2575 29.337 35.9489 29.337C34.6509 29.337 33.4057 29.8963 32.3398 30.9622L29.0051 34.2863C28.7308 34.1386 28.4564 34.0014 28.1926 33.8642C27.8127 33.6743 27.4539 33.4949 27.1478 33.3049C24.0242 31.321 21.1855 28.7355 18.4628 25.3903C17.1437 23.7229 16.2573 22.3194 15.6136 20.8948C16.4789 20.1033 17.2809 19.2802 18.0618 18.4887C18.3573 18.1932 18.6528 17.8872 18.9483 17.5917C21.1644 15.3756 21.1644 12.5052 18.9483 10.2891L16.0674 7.40822C15.7402 7.08108 15.4025 6.74339 15.0859 6.4057C14.4528 5.75142 13.7879 5.07604 13.102 4.44287C12.0784 3.4298 10.8543 2.8916 9.5668 2.8916C8.27936 2.8916 7.03412 3.4298 5.97884 4.44287C5.96829 4.45342 5.96829 4.45342 5.95773 4.46398L2.36977 8.0836C1.019 9.43437 0.248646 11.0806 0.0798003 12.9907C-0.173468 16.0721 0.734076 18.9425 1.43056 20.8209C3.14012 25.4325 5.69391 29.7064 9.50349 34.2863C14.1256 39.8055 19.687 44.1638 26.0398 47.2347C28.4669 48.3849 31.7067 49.7463 35.3263 49.9784C35.5479 49.989 35.7801 49.9995 35.9911 49.9995C38.4288 49.9995 40.4761 49.1236 42.0801 47.3824C42.0907 47.3613 42.1118 47.3508 42.1223 47.3297C42.6711 46.6648 43.3042 46.0633 43.9691 45.4196C44.4228 44.9869 44.8872 44.5331 45.3409 44.0583C46.3857 42.9713 46.9344 41.705 46.9344 40.407C46.9344 39.0984 46.3751 37.8426 45.3093 36.7874L39.5158 30.9727ZM43.2937 42.0849C43.2831 42.0849 43.2831 42.0954 43.2937 42.0849C42.8821 42.5281 42.46 42.9291 42.0062 43.3723C41.3203 44.0266 40.6238 44.7125 39.9695 45.4829C38.9037 46.6226 37.6479 47.1608 36.0017 47.1608C35.8434 47.1608 35.6745 47.1608 35.5162 47.1503C32.382 46.9497 29.4695 45.7256 27.285 44.6809C21.3121 41.7894 16.0674 37.6843 11.709 32.4818C8.11051 28.1446 5.70446 24.1345 4.11099 19.8289C3.12957 17.2013 2.77077 15.154 2.92907 13.2228C3.0346 11.9882 3.50947 10.9645 4.38536 10.0886L7.98388 6.49012C8.50097 6.00469 9.04972 5.74087 9.58791 5.74087C10.2527 5.74087 10.7909 6.14188 11.1286 6.47957C11.1392 6.49012 11.1497 6.50068 11.1603 6.51123C11.804 7.11274 12.4161 7.73536 13.0598 8.40019C13.3869 8.73788 13.7246 9.07557 14.0623 9.42382L16.9432 12.3047C18.0618 13.4233 18.0618 14.4575 16.9432 15.5761C16.6372 15.8822 16.3417 16.1882 16.0357 16.4837C15.1493 17.3912 14.305 18.2354 13.3869 19.0586C13.3658 19.0797 13.3447 19.0902 13.3342 19.1113C12.4266 20.0189 12.5955 20.9053 12.7854 21.5068C12.796 21.5385 12.8065 21.5701 12.8171 21.6018C13.5663 23.4169 14.6216 25.1265 16.2256 27.1632L16.2362 27.1737C19.1488 30.7617 22.2197 33.5582 25.6071 35.7004C26.0398 35.9748 26.483 36.1964 26.9051 36.4075C27.285 36.5974 27.6438 36.7768 27.9499 36.9668C27.9921 36.9879 28.0343 37.0195 28.0765 37.0406C28.4353 37.22 28.773 37.3044 29.1212 37.3044C29.9971 37.3044 30.5459 36.7557 30.7253 36.5763L34.3343 32.9672C34.6931 32.6084 35.263 32.1758 35.9278 32.1758C36.5821 32.1758 37.1203 32.5873 37.4474 32.9461C37.458 32.9567 37.458 32.9567 37.4685 32.9672L43.2831 38.7818C44.3701 39.8582 44.3701 40.9663 43.2937 42.0849Z" fill="#DADAE4"/>
<path d="M27.021 11.8935C29.7859 12.3578 32.2975 13.6664 34.3025 15.6714C36.3075 17.6765 37.6055 20.188 38.0804 22.9529C38.1965 23.6494 38.798 24.1348 39.4839 24.1348C39.5684 24.1348 39.6422 24.1243 39.7266 24.1137C40.5076 23.9871 41.0246 23.2484 40.898 22.4675C40.3282 19.1222 38.7452 16.0724 36.3286 13.6558C33.912 11.2392 30.8623 9.65631 27.517 9.08646C26.7361 8.95982 26.008 9.47691 25.8708 10.2473C25.7336 11.0176 26.2401 11.7669 27.021 11.8935Z" fill="#DADAE4"/>
<path d="M49.942 22.0561C49.0028 16.5475 46.4068 11.5349 42.4178 7.5459C38.4289 3.55692 33.4163 0.960922 27.9077 0.0217193C27.1373 -0.115468 26.4092 0.412174 26.272 1.18253C26.1454 1.96344 26.6624 2.69159 27.4434 2.82878C32.361 3.66245 36.8459 5.99463 40.4128 9.55094C43.9797 13.1178 46.3013 17.6028 47.135 22.5204C47.251 23.2169 47.8526 23.7023 48.5385 23.7023C48.6229 23.7023 48.6968 23.6917 48.7812 23.6812C49.5516 23.5651 50.0792 22.8264 49.942 22.0561Z" fill="#DADAE4"/>
</svg>

<svg width="50" height="50" viewBox="0 0 50 50" fill="none" xmlns="http://www.w3.org/2000/svg"><path d="M39.516 30.973c-1.024-1.066-2.258-1.636-3.567-1.636-1.298 0-2.543.56-3.61 1.625l-3.334 3.324c-.274-.147-.549-.285-.812-.422-.38-.19-.74-.37-1.045-.56-3.124-1.983-5.962-4.569-8.685-7.914-1.32-1.667-2.206-3.07-2.85-4.495.866-.792 1.668-1.615 2.449-2.406.295-.296.59-.602.886-.897 2.216-2.216 2.216-5.087 0-7.303l-2.88-2.88a43.877 43.877 0 0 1-.982-1.003 49.799 49.799 0 0 0-1.984-1.963c-1.024-1.013-2.248-1.551-3.535-1.551-1.288 0-2.533.538-3.588 1.55l-.021.022-3.588 3.62C1.019 9.434.249 11.08.08 12.99c-.253 3.081.654 5.951 1.35 7.83 1.71 4.611 4.264 8.885 8.073 13.465 4.623 5.52 10.184 9.878 16.537 12.949 2.427 1.15 5.667 2.511 9.286 2.743.222.011.454.021.665.021 2.438 0 4.485-.875 6.09-2.617.01-.02.03-.031.041-.052.55-.665 1.182-1.267 1.847-1.91.454-.433.918-.887 1.372-1.362 1.045-1.087 1.593-2.353 1.593-3.651 0-1.309-.559-2.564-1.625-3.62l-5.793-5.814zm3.778 11.112c-.01 0-.01.01 0 0-.412.443-.834.844-1.288 1.287-.686.655-1.382 1.34-2.037 2.11-1.065 1.14-2.321 1.679-3.967 1.679-.159 0-.328 0-.486-.01-3.134-.201-6.046-1.425-8.231-2.47-5.973-2.892-11.218-6.997-15.576-12.2-3.598-4.336-6.005-8.347-7.598-12.652-.981-2.628-1.34-4.675-1.182-6.606.106-1.235.58-2.259 1.456-3.134L7.984 6.49c.517-.485 1.066-.75 1.604-.75.665 0 1.203.402 1.54.74l.032.031a53.278 53.278 0 0 1 1.9 1.89c.327.337.665.675 1.002 1.023l2.881 2.88c1.119 1.12 1.119 2.153 0 3.272-.306.306-.601.612-.907.908-.887.907-1.731 1.751-2.65 2.575-.02.02-.041.031-.052.052-.907.908-.739 1.794-.549 2.396l.032.095c.75 1.815 1.805 3.524 3.409 5.561l.01.01c2.913 3.589 5.984 6.385 9.371 8.527.433.275.876.496 1.298.707.38.19.739.37 1.045.56.042.02.084.053.127.074.358.179.696.263 1.044.263.876 0 1.425-.548 1.604-.728l3.61-3.609c.358-.359.928-.791 1.593-.791.654 0 1.192.411 1.52.77l.02.021 5.815 5.815c1.087 1.076 1.087 2.184.01 3.303zM27.021 11.893c2.765.465 5.276 1.773 7.282 3.778a13.452 13.452 0 0 1 3.777 7.282 1.416 1.416 0 0 0 1.404 1.182c.084 0 .158-.01.243-.021a1.426 1.426 0 0 0 1.171-1.646 16.276 16.276 0 0 0-4.57-8.812 16.276 16.276 0 0 0-8.811-4.57 1.432 1.432 0 0 0-1.646 1.161 1.41 1.41 0 0 0 1.15 1.646zM49.942 22.056c-.94-5.509-3.535-10.521-7.524-14.51-3.99-3.99-9.002-6.585-14.51-7.524-.77-.137-1.499.39-1.636 1.16-.127.781.39 1.51 1.171 1.647 4.918.833 9.403 3.166 12.97 6.722 3.567 3.567 5.888 8.052 6.722 12.97a1.416 1.416 0 0 0 1.404 1.181c.084 0 .158-.01.242-.02a1.398 1.398 0 0 0 1.161-1.626z" fill="#DADAE4"/></svg>
